public/svgs/quotes.svg

<svg fill="none" height="41" viewBox="0 0 56 41" width="56" xmlns="http://www.w3.org/2000/svg"><path d="m.40332 28.0799c0 6.624 5.472 12.096 12.38398 12.096 6.624 0 12.096-5.472 12.096-12.096 0-4.752-2.592-8.928-6.48-10.944l5.328-16.559972h-5.904l-12.67198 16.559972c-4.176 5.616-4.752 8.208-4.752 10.944zm30.23998 0c0 6.624 5.472 12.096 12.384 12.096 6.624 0 12.096-5.472 12.096-12.096 0-4.752-2.592-8.928-6.48-10.944l5.328-16.559972h-5.904l-12.672 16.559972c-4.176 5.616-4.752 8.208-4.752 10.944z" fill="#647982"/></svg>

<svg width="56" height="41" viewBox="0 0 56 41" fill="none" xmlns="http://www.w3.org/2000/svg">
<path d="M0.40332 28.0799C0.40332 34.7039 5.87532 40.1759 12.7873 40.1759C19.4113 40.1759 24.8833 34.7039 24.8833 28.0799C24.8833 23.3279 22.2913 19.1519 18.4033 17.1359L23.7313 0.575928H17.8273L5.15532 17.1359C0.97932 22.7519 0.40332 25.3439 0.40332 28.0799ZM30.6433 28.0799C30.6433 34.7039 36.1153 40.1759 43.0273 40.1759C49.6513 40.1759 55.1233 34.7039 55.1233 28.0799C55.1233 23.3279 52.5313 19.1519 48.6433 17.1359L53.9713 0.575928H48.0673L35.3953 17.1359C31.2193 22.7519 30.6433 25.3439 30.6433 28.0799Z" fill="#647982"/>
</svg>
